X: 1
T: Bruks-Calles Schottis
C: Kaj Hansen
R: shottish
Z: 2007 John Chambers <jc@trillian.mit.edu>
N: First transcribed from a handwritten MS of unknown origin
N: Modified from printed page labelled @251 by TRIO-F\"ORLAGET, Stockholm, Sweden
N: "Siljanfors Skogsmuseum i Mora 1976"
N: "100 \aar efter SILJANFORS som j\"arnbruk 1739-1876"
M: 4/4
L: 1/8
P: AABBACCA
K: F
c2 \
| "F"a2 a>g "Bb"f>g f>d | "F"c>d c>A F2 F2 | "C7"C2 E>G c2 c2 | "F"F2 A>c f2 f2 |
| "F"a2 a>g "Bb"f>g f>d | "F"c>d c>A F2 F2 | "C7"C2 E>G c>B A>G | "F"F2 [f2c2A2] "fine"[f2c2A2] :|
K: Bb
|: f2 \
| "Bb"[d4B4] "Bdim"[f4=B4] | "Cm"e>f e>d c2 c2 | "F7"F2 A>c F2 A>c | "Bb"B2 d>f [b2d2] [b2d2] |
| "Bb"[d4B4] "Bdim"[f4=B4] | "Cm"e>d e>f [g2e2] [g2e2] | "F7"f2 a>g f>[fe'] g>a | "Bb"[b2f2d2] [b2f2d2] "d.C."[b2f2d2] :|
K: C
|: G2 \
| "C"E2 G>E "F"F2 A>F | "C"E>G c>G .[e2G2] k[e2G2] | "G7"D>G B>G .[d2F2] k[d2F2] | "C"E>G c>G .[e2G2] k[e2G2] |
| "C"E2 G>E "F"F2 A>F | "C"E>G c>G .[e2G2] k[e2G2] | "G7"D>G B>G d>G B>d | "C"[c2G2E2] [c2G2E2] "d.C."[c2G2E2] :|
